X: 26588
T: Mick Lynch's
R: slide
M: 12/8
K: Amajor
|:a2f|e2c A2E F2E A2c|B3 BAB c2B Bcd|
e2c A2E F2E A2c|B3 BcB A3:|
|:ABc|d2d f2e c2c edc|B3 BAB e3 efe|
d2d f2e c2c edc|B2A F2E A3:|

